TcNo-Acc-Switcher-Server/wwwroot/img/icons/ico_settings.svg

<svg xmlns="http://www.w3.org/2000/svg" viewBox="0 0 60 60"  fill-rule="evenodd" stroke-linejoin="round" stroke-miterlimit="2" xmlns:v="https://vecta.io/nano"><path d="M30.707.008a30.3 30.3 0 0 0-1.414 0C25.79.83 23.614 2.99 22.767 6.487a24.66 24.66 0 0 0-4.278 1.772c-3.072-1.874-6.138-1.862-9.197.034l-.999.999c-1.896 3.059-1.908 6.125-.034 9.197a24.66 24.66 0 0 0-1.772 4.278C2.99 23.614.83 25.79.008 29.293v1.414c.822 3.503 2.982 5.679 6.479 6.526a24.66 24.66 0 0 0 1.772 4.278c-1.874 3.072-1.862 6.138.034 9.197l.999.999c3.059 1.896 6.125 1.908 9.197.034a24.66 24.66 0 0 0 4.278 1.772c.847 3.497 3.023 5.657 6.526 6.479h1.414c3.503-.822 5.679-2.982 6.526-6.479a24.66 24.66 0 0 0 4.278-1.772c3.072 1.874 6.138 1.862 9.197-.034l.999-.999c1.896-3.059 1.908-6.125.034-9.197a24.66 24.66 0 0 0 1.772-4.278c3.497-.847 5.657-3.023 6.479-6.526v-1.414c-.822-3.503-2.982-5.679-6.479-6.526a24.66 24.66 0 0 0-1.772-4.278c1.874-3.072 1.862-6.138-.034-9.197l-.999-.999c-3.059-1.896-6.125-1.908-9.197-.034a24.66 24.66 0 0 0-4.278-1.772C36.386 2.99 34.21.83 30.707.008zM30 21.6c4.636 0 8.4 3.764 8.4 8.4s-3.764 8.4-8.4 8.4-8.4-3.764-8.4-8.4 3.764-8.4 8.4-8.4z" fill="#fff"/></svg>

<?xml version="1.0" encoding="UTF-8" standalone="no"?>
<!DOCTYPE svg PUBLIC "-//W3C//DTD SVG 1.1//EN" "http://www.w3.org/Graphics/SVG/1.1/DTD/svg11.dtd">
<svg width="100%" height="100%" viewBox="0 0 60 60" version="1.1" xmlns="http://www.w3.org/2000/svg" xmlns:xlink="http://www.w3.org/1999/xlink" xml:space="preserve" xmlns:serif="http://www.serif.com/" style="fill-rule:evenodd;clip-rule:evenodd;stroke-linejoin:round;stroke-miterlimit:2;">
    <path d="M30.707,0.008C30.236,-0.003 29.764,-0.003 29.293,0.008C25.79,0.83 23.614,2.99 22.767,6.487C21.288,6.942 19.856,7.536 18.489,8.259C15.417,6.385 12.351,6.397 9.292,8.293C8.951,8.618 8.618,8.951 8.293,9.292C6.397,12.351 6.385,15.417 8.259,18.489C7.536,19.856 6.942,21.288 6.487,22.767C2.99,23.614 0.83,25.79 0.008,29.293C-0.003,29.764 -0.003,30.236 0.008,30.707C0.83,34.21 2.99,36.386 6.487,37.233C6.942,38.712 7.536,40.144 8.259,41.511C6.385,44.583 6.397,47.649 8.293,50.708C8.618,51.049 8.951,51.382 9.292,51.707C12.351,53.603 15.417,53.615 18.489,51.741C19.856,52.464 21.288,53.058 22.767,53.513C23.614,57.01 25.79,59.17 29.293,59.992C29.764,60.003 30.236,60.003 30.707,59.992C34.21,59.17 36.386,57.01 37.233,53.513C38.712,53.058 40.144,52.464 41.511,51.741C44.583,53.615 47.649,53.603 50.708,51.707C51.049,51.382 51.382,51.049 51.707,50.708C53.603,47.649 53.615,44.583 51.741,41.511C52.464,40.144 53.058,38.712 53.513,37.233C57.01,36.386 59.17,34.21 59.992,30.707C60.003,30.236 60.003,29.764 59.992,29.293C59.17,25.79 57.01,23.614 53.513,22.767C53.058,21.288 52.464,19.856 51.741,18.489C53.615,15.417 53.603,12.351 51.707,9.292C51.382,8.951 51.049,8.618 50.708,8.293C47.649,6.397 44.583,6.385 41.511,8.259C40.144,7.536 38.712,6.942 37.233,6.487C36.386,2.99 34.21,0.83 30.707,0.008ZM30,21.6C34.636,21.6 38.4,25.364 38.4,30C38.4,34.636 34.636,38.4 30,38.4C25.364,38.4 21.6,34.636 21.6,30C21.6,25.364 25.364,21.6 30,21.6Z" style="fill:rgb(255,255,255);"/>
</svg>
